!!!!SEGMENT: pl-cz--iii-347--001_kobierkowicz-jozef--in-pace-princeps.krn
!!!cenid: 17xx:922
!!!COM: Kobierkowicz, Józef
!!!COM-rismID: pe30017725
!!!CDT: <1721->=1735
!!!CNT: Polish
!!!OTL: In pace princeps
!!!PDT:
!!!AGN: Sacred
!!!SMS-siglum: PL-CZ
!!!SMS-shelfmark: III-347
!!!SMS-shelfwork: 001 W
!!!SMS-variant:
!!!SMS-altvar:
!!!NIFC-rismSourceID: 300237567
!!!NIFC-islandoraID: pl-cz:37785
!!!URL-pdf-islandora: https://repozytorium.nifc.pl/islandora/object/pl-cz%3A37785/datastream/PDF/view
!!!URL-scan:
!!!ONB-nifc: UWAGA: In pace princeps i Caelo rores fluunt to osobne utwory
!!!AIN: 1 alto 1 cello 2 clrno 1 tenor 2 violn
!!!key: D
**kern	**kern	**dynam	**kern	**dynam	**kern	**text	**kern	**text	**kern	**kern
*group3	*group3	*	*group3	*	*group2	*	*group2	*	*group1	*group1
*part7	*part6	*part6	*part5	*part5	*part4	*part4	*part3	*part3	*part2	*part1
*staff7	*staff6	*	*staff5	*	*staff4	*staff4	*staff3	*staff3	*staff2	*staff1
*I"Baſso	*I"Violino 2do	*	*I"Violino 1mo	*	*I"Tenore	*	*I"Alto	*	*I"Clar: 2do Ex D	*I"Clar: 1mo Ex D
*I'b	*I'vl 2	*	*I'vl 1	*	*I'T	*	*I'A	*	*I'clno 2 in D	*I'clno 1 in D
*Icello	*Ivioln	*	*Ivioln	*	*Itenor	*	*Ialto	*	*Iclrno	*Iclrno
*ICstr	*ICstr	*	*ICstr	*	*ICvox	*	*ICvox	*	*ICbras	*ICbras
*clefF4	*clefG2	*	*clefG2	*	*clefC4	*	*clefC3	*	*clefG2	*clefG2
*	*	*	*	*	*ITrd8c12	*	*ITrd-1c-2	*	*ITrd-1c-2	*ITrd-1c-2
*k[f#c#]	*k[f#c#]	*	*k[f#c#]	*	*k[f#c#]	*	*k[f#c#]	*	*k[f#c#]	*k[f#c#]
*D:	*D:	*	*D:	*	*D:	*	*D:	*	*D:	*D:
*M3/2	*M3/2	*	*M3/2	*	*M3/2	*	*M3/2	*	*M3/2	*M3/2
*2\right	*2\right	*	*2\right	*	*2\right	*	*2\right	*	*2\right	*2\right
=1	=1	=1	=1	=1	=1	=1	=1	=1	=1	=1
!LO:TX:a:t=1mo:note=oznaczenie pierwszego utworu w rękopisie	!LO:TX:a:t=1mo:note=oznaczenie pierwszego utworu w rękopisie	!	!LO:TX:a:t=1mo:note=oznaczenie pierwszego utworu w rękopisie	!	!LO:TX:a:t=1mo:note=oznaczenie pierwszego utworu w rękopisie	!	!LO:TX:a:t=1mo:note=oznaczenie pierwszego utworu w rękopisie	!	!	!
!	!	!	!LO:TX:t=P:problem=przed początkiem zapisu w D, zapisano, a potem skreślono, kilkanaście taktów utworu in C	!	!LO:TX:t=P:problem=partia zapisana bez znaków przykluczowych	!	!LO:TX:t=P:problem=partia wokalna z niezrozumiałych względów zapisana w transpozycji in D (może oryginalnie utwór pomyślany in C? patrz uwaga w vl 1)	!	!	!LO:TX:t=P:problem=obie Clarini zapisane pierwotnie z adnotacją "Ex C", potem ołówkiem przerobione na Ex D, co odpowiada zapisowi muzycznemu
!	!	!	!	!	!	!	!LO:TX:a:t=8	!	!LO:TX:t=P:problem=obie Clarini zapisane pierwotnie z adnotacją "Ex C", potem ołówkiem przerobione na Ex D, co odpowiada zapisowi muzycznemu	!
!	!LO:TX:t=P:problem=krzyżyki jeden nad drugim	!	!LO:TX:t=P:problem=krzyżyki jeden nad drugim	!	!	!	!	!	!	!
2D/	4dd\	.	4ff#\	.	1.r	.	1.r	.	4dd\	4ff#\
.	4ee\	.	4gg\	.	.	.	.	.	4ee\	4gg\
2r	2ff#\	.	2aa\	.	.	.	.	.	2ff#\	2aa\
2r	2dd\	.	2ff#\	.	.	.	.	.	2dd\	2ff#\
=2	=2	=2	=2	=2	=2	=2	=2	=2	=2	=2
2A\	2ee\	.	2gg\	.	1.r	.	1.r	.	2ee\	2gg\
2r	1c#c	.	1ee	.	.	.	.	.	1a	1ee
2A\	.	.	.	.	.	.	.	.	.	.
=3	=3	=3	=3	=3	=3	=3	=3	=3	=3	=3
2D/	4dd\	.	4ff#\	.	1.r	.	1.r	.	4dd\	4ff#\
.	4cc#\	.	4ee\	.	.	.	.	.	4a/	4ee\
2r	2dd\	.	2ff#\	.	.	.	.	.	2dd\	2ff#\
2D/	2r	.	2r	.	.	.	.	.	2r	2r
=4	=4	=4	=4	=4	=4	=4	=4	=4	=4	=4
!	!	!LO:DY:a:t=Piano	!	!LO:DY:a:t=Piano	!	!	!	!	!	!
2D/	4d/	p	4f#/	p	1.r	.	1.r	.	4dd\	4ff#\
.	4e/	.	4g/	.	.	.	.	.	4ee\	4gg\
2r	2f#/	.	2a/	.	.	.	.	.	2ff#\	2aa\
2r	2d/	.	2f#/	.	.	.	.	.	2dd\	2ff#\
=5	=5	=5	=5	=5	=5	=5	=5	=5	=5	=5
2A\	2e/	.	2g/	.	1.r	.	1.r	.	2ee\	2gg\
2r	1c#	.	1e	.	.	.	.	.	1a	1ee
2A\	.	.	.	.	.	.	.	.	.	.
=6	=6	=6	=6	=6	=6	=6	=6	=6	=6	=6
2d\	4d/	.	4f#/	.	1.r	.	1.r	.	4dd\	4ff#\
.	4c#/	.	4e/	.	.	.	.	.	4a/	4ee\
2r	2d/	.	2f#/	.	.	.	.	.	2dd\	2ff#\
2D/	2r	.	2r	.	.	.	.	.	2r	2r
=7	=7	=7	=7	=7	=7	=7	=7	=7	=7	=7
!	!	!	!	!LO:DY:b:t=forte	!	!	!	!	!	!
!	!	!LO:DY:b:t=forte	!	!	!	!	!	!	!	!
2A\	4a/	f	4cc#\	f	1.r	.	1.r	.	2r	2r
.	4b/	.	4dd\	.	.	.	.	.	.	.
2A\	2cc#\	.	2ee\	.	.	.	.	.	2a/	2ee\
2A\	2ff#\	.	2aa\	.	.	.	.	.	2ff#\	2aa\
=8	=8	=8	=8	=8	=8	=8	=8	=8	=8	=8
2A\	4ff#\	.	4aa\	.	1.r	.	1.r	.	4ff#\	4aa\
.	8ee\L	.	8gg\L	.	.	.	.	.	8ee\L	8gg\L
.	8dd\J	.	8ff#\J	.	.	.	.	.	8dd\J	8ff#\J
2A\	4ee\	.	4gg\	.	.	.	.	.	4ee\	4gg\
.	4cc#\	.	4ee\	.	.	.	.	.	4a/	4ee\
2A\	2dd\	.	2ff#\	.	.	.	.	.	2dd\	2ff#\
=9	=9	=9	=9	=9	=9	=9	=9	=9	=9	=9
!	!	!	!	!	!	!	!LO:TX:a:t=8	!	!	!
!	!	!	!	!LO:DY:b:t=piano	!	!	!	!	!	!
!	!	!LO:DY:b:t=piano	!	!	!	!	!	!	!	!
2AA/	4a/	p	4cc#\	p	1.r	.	1.r	.	2r	2r
.	4b/	.	4dd\	.	.	.	.	.	.	.
2AA/	2cc#\	.	2ee\	.	.	.	.	.	2a/	2ee\
2AA/	2ff#\	.	2aa\	.	.	.	.	.	2ff#\	2aa\
=10	=10	=10	=10	=10	=10	=10	=10	=10	=10	=10
2AA/	4ff#\	.	4aa\	.	1.r	.	1.r	.	4ff#\	4aa\
.	8ee\L	.	8gg\L	.	.	.	.	.	8ee\L	8gg\L
*	*	*	*	*	*	*	*	*	*custos:ee	*
.	8dd\J	.	8ff#\J	.	.	.	.	.	8dd\J	8ff#\J
!	!	!	!	!	!	!	!	!	!LO:LB:g=original	!
2AA/	4ee\	.	4gg\	.	.	.	.	.	4ee\	4gg\
.	4cc#\	.	4ee\	.	.	.	.	.	4a/	4ee\
2D/	2dd\	.	2ff#\	.	.	.	.	.	2dd\	2ff#\
!	!	!	!	!	!	!	!	!	!	!LO:LB:g=original
=11	=11	=11	=11	=11	=11	=11	=11	=11	=11	=11
!	!	!	!	!LO:DY:b:t=forte	!	!	!	!	!	!
!	!	!LO:DY:b:t=forte	!	!	!	!	!	!	!	!
2D/	2bb\	f	4ff#\	f	1.r	.	1.r	.	2ff#\	2bb\
.	.	.	2bb\	.	.	.	.	.	.	.
2d\	2ff#\	.	.	.	.	.	.	.	2bb\	2ff#\
.	.	.	4ff#\	.	.	.	.	.	.	.
2D/	2b/	.	4dd\	.	.	.	.	.	2ff#\	2bb\
.	.	.	4bb\	.	.	.	.	.	.	.
=12	=12	=12	=12	=12	=12	=12	=12	=12	=12	=12
2E\	2ee\	.	4gg\	.	1.r	.	1.r	.	2.ee\	2.gg\
.	.	.	2bb\	.	.	.	.	.	.	.
2e\	2gg\	.	.	.	.	.	.	.	.	.
.	.	.	2gg\	.	.	.	.	.	4ff#\	4aa\
2E\	2bb\	.	.	.	.	.	.	.	[2gg\	2bb\
*	*	*	*custos:ee	*	*	*	*	*	*	*
.	.	.	4ee\	.	.	.	.	.	.	.
!	!	!	!LO:LB:g=original	!	!	!	!	!	!	!
=13	=13	=13	=13	=13	=13	=13	=13	=13	=13	=13
2C#/	2gg\	.	4ee\	.	1.r	.	1.r	.	1.gg]	[1.aa
.	.	.	2gg\	.	.	.	.	.	.	.
2c#\	2ee\	.	.	.	.	.	.	.	.	.
.	.	.	4ee\	.	.	.	.	.	.	.
2C#/	2a/	.	4cc#\	.	.	.	.	.	.	.
.	.	.	4gg\	.	.	.	.	.	.	.
=14	=14	=14	=14	=14	=14	=14	=14	=14	=14	=14
2D/	2dd\	.	4ff#\	.	1.r	.	1.r	.	[1.ff#	1.aa]
.	.	.	2aa\	.	.	.	.	.	.	.
2d\	2ff#\	.	.	.	.	.	.	.	.	.
.	.	.	2ff#\	.	.	.	.	.	.	.
*	*custos:ff#	*	*	*	*	*	*	*	*	*
2D/	2aa\	.	.	.	.	.	.	.	.	.
.	.	.	4dd\	.	.	.	.	.	.	.
!	!LO:LB:g=original	!	!	!	!	!	!	!	!	!
=15	=15	=15	=15	=15	=15	=15	=15	=15	=15	=15
2BB/	2ff#\	.	4dd\	.	1.r	.	1.r	.	1.ff#]	[1.gg
.	.	.	2ff#\	.	.	.	.	.	.	.
2B\	2dd\	.	.	.	.	.	.	.	.	.
.	.	.	4dd\	.	.	.	.	.	.	.
2BB/	2g/	.	4b/	.	.	.	.	.	.	.
.	.	.	4ff#\	.	.	.	.	.	.	.
!LO:LB:g=original	!	!	!	!	!	!	!	!	!	!
=16	=16	=16	=16	=16	=16	=16	=16	=16	=16	=16
2C#/	2cc#\	.	4ee\	.	1.r	.	1.r	.	1.ee	1.gg]
.	.	.	2gg\	.	.	.	.	.	.	.
2c#\	2ee\	.	.	.	.	.	.	.	.	.
.	.	.	2ee\	.	.	.	.	.	.	.
2C#/	2gg\	.	.	.	.	.	.	.	.	.
.	.	.	4cc#\	.	.	.	.	.	.	.
=17	=17	=17	=17	=17	=17	=17	=17	=17	=17	=17
!	!	!	!	!	!	!	!LO:TX:a:t=3	!	!	!
2A\	4ee\	.	4gg\	.	1.r	.	1.r	.	4ee\	4gg\
.	4dd\	.	4ff#\	.	.	.	.	.	4dd\	4ff#\
2r	4cc#\	.	4ee\	.	.	.	.	.	4a/	4ee\
.	4dd\	.	4ff#\	.	.	.	.	.	4dd\	4ff#\
2A\	2ee\	.	2gg\	.	.	.	.	.	2ee\	2gg\
=18	=18	=18	=18	=18	=18	=18	=18	=18	=18	=18
2A\	4dd\	.	4ff#\	.	1.r	.	1.r	.	4dd\	4ff#\
.	8cc#\L	.	8ee\L	.	.	.	.	.	8ee\L	8ee\L
.	8b\J	.	8dd\J	.	.	.	.	.	8ff#\J	8dd\J
2A\	2cc#\	.	2ee\	.	.	.	.	.	2a/	2ee\
2AA/	2r	.	2r	.	.	.	.	.	2r	2r
=19	=19	=19	=19	=19	=19	=19	=19	=19	=19	=19
2D/	4dd\	.	4ff#\	.	1.r	.	1.r	.	4dd\	4ff#\
.	4cc#\	.	4ee\	.	.	.	.	.	4a/	4ee\
2r	2dd\	.	2ff#\	.	.	.	.	.	2dd\	2ff#\
!	!	!	!	!	!	!	!	!	!LO:TX:t=P:problem=brak kreski taktowej	!
2r	2d/	.	2f#/	.	.	.	.	.	2r	2r
*	*	*	*	*	*clefG2	*	*	*	*	*
=20	=20	=20	=20	=20	=20	=20	=20	=20	=20-	=20
!	!	!	!	!	!LO:TX:t=P:problem=klucz wiolinowy i adnoacja "Violin" wpisane ołówkiem	!	!	!	!	!
!	!	!	!	!	!LO:TX:t=P:problem=brak przenośnika oktawowego	!	!	!	!	!
!	!	!	!	!LO:DY:b:t=piano	!	!	!	!	!	!
!	!	!LO:DY:b:t=piano	!	!	!	!	!	!	!	!
2D/	4dd\	p	4ff#\	p	(4d\	In	(4f#\	In	1.r	1.r
.	4ee\	.	4gg\	.	4e\)	.	4g\)	.	.	.
2r	2ff#\	.	2aa\	.	2f#\	pa-	2a\	pa-	.	.
2r	2dd\	.	2ff#\	.	2d\	-ce	2f#\	-ce	.	.
=21	=21	=21	=21	=21	=21	=21	=21	=21	=21	=21
2A\	2ee\	.	2gg\	.	2e\	Prin-	2g\	Prin-	1.r	1.r
2r	1a	.	1ee	.	1c#	-ceps	1e	-ceps	.	.
2A\	.	.	.	.	.	.	.	.	.	.
=22	=22	=22	=22	=22	=22	=22	=22	=22	=22	=22
2d\	4dd\	.	4ff#\	.	4d\	na-	4f#\	na-	1.r	1.r
.	4cc#\	.	4ee\	.	4c#\	-sce-	4e\	-sce-	.	.
2r	2dd\	.	2ff#\	.	2d\	-ris	2f#\	-ris	.	.
2r	2d/	.	2f#/	.	2r	.	2r	.	.	.
=23	=23	=23	=23	=23	=23	=23	=23	=23	=23	=23
2D/	4dd\	.	4ff#\	.	(4d\	bel-	(4f#\	bel-	1.r	1.r
.	4ee\	.	4gg\	.	4e\)	.	4g\)	.	.	.
2r	2ff#\	.	2aa\	.	2f#\	-lum	2a,\	-lum	.	.
2r	2dd\	.	2ff#\	.	2d\	re-	2f#\	re-	.	.
=24	=24	=24	=24	=24	=24	=24	=24	=24	=24	=24
2A\	2ee\	.	2gg\	.	2e\	-sol-	2g\	-sol-	1.r	1.r
2r	1c#c	.	1ee	.	1c#	-ve	1e	-ve	.	.
2A\	.	.	.	.	.	.	.	.	.	.
=25	=25	=25	=25	=25	=25	=25	=25	=25	=25	=25
2d\	4dd\	.	4ff#\	.	4d\	mi-	4f#\	mi-	1.r	1.r
.	4cc#\	.	4ee\	.	4c#\	-se-	4e\	-se-	.	.
2r	2dd\	.	2ff#\	.	2d\	-ris	2f#\	-ris,	.	.
2r	2d/	.	2f#/	.	2r	.	2r	.	.	.
=26	=26	=26	=26	=26	=26	=26	=26	=26	=26	=26
2A\	4a/	.	4cc#\	.	(4A/	ge-	(4c#/	ge-	1.r	1.r
.	4b/	.	4dd\	.	4B/)	.	4d/)	.	.	.
2A\	2cc#\	.	2ee\	.	2c#\	-nu	2e\	-nu	.	.
2A\	2ff#\	.	2aa\	.	2f#\	cum	2a\	cum	.	.
=27	=27	=27	=27	=27	=27	=27	=27	=27	=27	=27
2A\	4ff#\	.	4aa\	.	4f#\	bo-	4a\	bo-	1.r	1.r
.	8ee\L	.	8gg\L	.	(8e\L	-ve	(8g\L	-ve	.	.
.	8dd\J	.	8ff#\J	.	8d\J)	.	8f#\J)	.	.	.
2r	4ee\	.	4gg\	.	4.e\	fle-	4.g\	fle-	.	.
.	4cc#\	.	4ee\	.	.	.	.	.	.	.
.	.	.	.	.	8c#\	-cti-	8e\	-cti-	.	.
2r	2dd\	.	2ff#\	.	2d\	-mus	2f#\	-mus,	.	.
!	!	!	!LO:LB:g=original	!	!LO:LB:g=original	!	!LO:LB:g=original	!	!	!
=28	=28	=28	=28	=28	=28	=28	=28	=28	=28	=28
!	!	!LO:DY:a:t=forte	!	!LO:DY:a:t=forte	!	!	!	!	!	!
2A\	1.e 1.A	f	[1.e 1.A	f	(4A/	fae-	(4c#/	fae-	1.r	1.r
.	.	.	.	.	4B/)	.	4d/)	.	.	.
2A\	.	.	.	.	2c#\	-no	2e\	-nó	.	.
2A\	.	.	.	.	2f#\	que	2a\	que	.	.
=29	=29	=29	=29	=29	=29	=29	=29	=29	=29	=29
2A\	1.e 1.A	.	1.e] 1.A	.	4f#\	lau-	4a\	lau-	1.r	1.r
.	.	.	.	.	(8e\L	-ros	(8g\L	-ros	.	.
.	.	.	.	.	8d\J)	.	8f#\J)	.	.	.
2r	.	.	.	.	4.e\	nec-	4.g\	nec-	.	.
.	.	.	.	.	8c#\	-ti-	8e\	-ti-	.	.
2D/	.	.	.	.	2d\	-mus	2f#\	-mus,	.	.
=30	=30	=30	=30	=30	=30	=30	=30	=30	=30	=30
!LO:TX:a:t=4	!	!LO:DY:a:t=Piano	!	!	!	!	!	!	!	!
!	!	!	!	!LO:DY:b:t=piano	!	!	!	!	!	!
1.r	4a/	p	4cc#\	p	1.A	in	1.a	in	2r	2r
*	*custos:cc#	*	*	*	*	*	*	*	*	*
.	4b/	.	4dd\	.	.	.	.	.	.	.
!	!LO:LB:g=original	!	!	!	!	!	!	!	!	!
.	2cc#\	.	2ee\	.	.	.	.	.	2a/	2ee\
.	2ff#\	.	2aa\	.	.	.	.	.	2ff#\	2aa\
=31	=31	=31	=31	=31	=31	=31	=31	=31	=31	=31
1.r	4ff#\	.	4aa\	.	1A	Pa-	1a	pa-	4ff#\	4aa\
.	8ee\L	.	8gg\L	.	.	.	.	.	8ee\L	8gg\L
.	8dd\J	.	8ff#\J	.	.	.	.	.	8dd\J	8ff#\J
.	4ee\	.	4gg\	.	.	.	.	.	4ee\	4gg\
.	4cc#\	.	4ee\	.	.	.	.	.	4a/	4ee\
*	*	*	*	*	*	*	*	*	*	*custos:ee
.	2dd\	.	2ff#\	.	2d\	-ce	2d/	-ce	2dd\	2ff#\
!	!	!	!	!	!	!	!	!	!LO:LB:g=original	!LO:LB:g=original
=32	=32	=32	=32	=32	=32	=32	=32	=32	=32	=32
1.r	4a/	.	4cc#\	.	[>1.A	pa-	[1.a	pa-	2r	2r
.	4b/	.	4dd\	.	.	.	.	.	.	.
.	2cc#\	.	2ee\	.	.	.	.	.	2a/	2ee\
.	2ff#\	.	2aa\	.	.	.	.	.	2ff#\	2aa\
=33	=33	=33	=33	=33	=33	=33	=33	=33	=33	=33
1.r	4ff#\	.	4aa\	.	1A]	.	1a]	.	4ff#\	4aa\
.	8ee\L	.	8gg\L	.	.	.	.	.	8ee\L	8gg\L
.	8dd\J	.	8ff#\J	.	.	.	.	.	8dd\J	8ff#\J
.	4ee\	.	4gg\	.	.	.	.	.	4ee\	4gg\
.	4cc#\	.	4ee\	.	.	.	.	.	4a/	4ee\
.	2dd\	.	2ff#\	.	2d\	-ce	2d/	-ce	2dd\	2ff#\
=34	=34	=34	=34	=34	=34	=34	=34	=34	=34	=34
!	!LO:TX:a:t=1	!	!LO:TX:a:t=1	!	!	!	!	!	!LO:TX:a:t=1	!LO:TX:a:t=1
1D	1.r	.	1.r	.	2f#\	in	2a\	in	1.r	1.r
.	.	.	.	.	2g\	pa-	2b\	pa-	.	.
2D/	.	.	.	.	2f#\	-ce	2a\	-ce	.	.
=35	=35	=35	=35	=35	=35	=35	=35	=35	=35	=35
!	!	!LO:DY:a:t=forte	!	!	!	!	!	!	!	!
!	!	!	!	!	!LO:TX:a:t=1	!	!LO:TX:a:t=1	!	!	!
!	!	!	!	!LO:DY:b:t=forte	!	!	!	!	!	!
2d\	2f#/	f	2a/	f	1.r	.	1.r	.	2ff#\	2aa\
2r	2g/	.	2b/	.	.	.	.	.	2gg\	2bb\
2r	2f#/	.	2a/	.	.	.	.	.	2ff#\	2aa\
=36	=36	=36	=36	=36	=36	=36	=36	=36	=36	=36
!	!LO:TX:a:t=6	!	!LO:TX:a:t=5	!	!	!	!	!	!	!
1C#	1.r	.	1.r	.	2f#\	in	2a\	in	1.r	1.r
.	.	.	.	.	2g\	pa-	2b\	pa-	.	.
*custos:D	*	*	*	*	*	*	*	*	*	*
(2C#/	.	.	.	.	2f#\	-ce	2a\	-ce	.	.
!LO:LB:g=original	!	!	!	!	!	!	!	!	!	!
=37	=37	=37	=37	=37	=37	=37	=37	=37	=37	=37
1D)	1.r	.	1.r	.	1e	Prin-	1g	Prin-	1.r	1.r
2C#/	.	.	.	.	2e\	-ceps	2g\	-ceps	.	.
=38	=38	=38	=38	=38	=38	=38	=38	=38	=38	=38
1D	1.r	.	1.r	.	2.e\	nas-	2.g\	nas-	1.r	1.r
.	.	.	.	.	4d\	-ce-	4f#\	-ce-	.	.
2D/	.	.	.	.	2d\	-ris	2f#\	-ris	.	.
=39	=39	=39	=39	=39	=39	=39	=39	=39	=39	=39
1D	1.r	.	1.r	.	2f#\	bel-	2a\	bel-	1.r	1.r
.	.	.	.	.	2g\	-lum	2b\	-lum	.	.
*	*	*	*	*	*custos:e	*	*	*	*	*
[>2D/	.	.	.	.	2f#\	re-	2a\	re-	.	.
!	!	!	!	!	!LO:LB:g=original	!	!	!	!	!
=40	=40	=40	=40	=40	=40	=40	=40	=40	=40	=40
1D]	1.r	.	1.r	.	1e	-sol-	1g	-sol-	1.r	1.r
!	!	!	!	!	!	!	!LO:LB:g=original	!	!	!
2C#/	.	.	.	.	2e\	-ve	2g\	-ve	.	.
=41	=41	=41	=41	=41	=41	=41	=41	=41	=41	=41
1D	1.r	.	2r	.	2.e\	mi-	2.g\	mi-	1.r	1.r
.	.	.	2r	.	.	.	.	.	.	.
.	.	.	.	.	4d\	-se-	4f#\	-se-	.	.
!	!	!	!	!LO:DY:b:t=Piano	!	!	!	!	!	!
2D/	.	.	2aa\	p	2d\	-ris	2f#\	-ris	.	.
=42	=42	=42	=42	=42	=42	=42	=42	=42	=42	=42
!	!	!	!	!	!	!	!LO:TX:a:t=1	!	!	!
!	!	!LO:DY:b:t=piano	!	!	!	!	!	!	!	!
2d\	2cc#\	p	4ff#\	.	2f#\	bel-	1.r	.	1.r	1.r
.	.	.	2bb\	.	.	.	.	.	.	.
2D/	2ee\	.	.	.	2f#\	-lum	.	.	.	.
.	.	.	4ff#\	.	.	.	.	.	.	.
2d\	2cc#\	.	4dd\	.	2f#\	re-	.	.	.	.
.	.	.	4bb\	.	.	.	.	.	.	.
=43	=43	=43	=43	=43	=43	=43	=43	=43	=43	=43
2E\	2ee\	.	4gg\	.	1g	-sol-	2b\	bel-	1.r	1.r
.	.	.	2bb\	.	.	.	.	.	.	.
2e\	2g/	.	.	.	.	.	2b\	-lum	.	.
.	.	.	2gg\	.	.	.	.	.	.	.
2E\	2b/	.	.	.	2g\	-ve	2b\	re-	.	.
.	.	.	4ee\	.	.	.	.	.	.	.
=44	=44	=44	=44	=44	=44	=44	=44	=44	=44	=44
2c#\	2a/	.	4ee\	.	1.g	mi-	1a	-sol-	1.r	1.r
.	.	.	2gg\	.	.	.	.	.	.	.
2C#/	2cc#\	.	.	.	.	.	.	.	.	.
.	.	.	4ee\	.	.	.	.	.	.	.
2c#\	2a/	.	4a/	.	.	.	[<2a\	-ve	.	.
.	.	.	4gg\	.	.	.	.	.	.	.
=45	=45	=45	=45	=45	=45	=45	=45	=45	=45	=45
2D/	2dd\	.	4ff#\	.	[<1.f#	.	1.a]	[[mi]]-	1.r	1.r
.	.	.	2aa\	.	.	.	.	.	.	.
2d\	2f#/	.	.	.	.	.	.	.	.	.
.	.	.	2ff#\	.	.	.	.	.	.	.
2D/	2a/	.	.	.	.	.	.	.	.	.
.	.	.	[4dd\	.	.	.	.	.	.	.
=46	=46	=46	=46	=46	=46	=46	=46	=46	=46	=46
2B\	2g/	.	4dd\]	.	1.f#]	.	[1.g	.	1.r	1.r
.	.	.	2ff#\	.	.	.	.	.	.	.
2BB/	2b/	.	.	.	.	.	.	.	.	.
!	!	!	!LO:N:vis=4	!	!	!	!	!	!	!
.	.	.	2dd\	.	.	.	.	.	.	.
2B\	2g/	.	.	.	.	.	.	.	.	.
.	.	.	4b/	.	.	.	.	.	.	.
=47	=47	=47	=47	=47	=47	=47	=47	=47	=47	=47
2C#/	2cc#\	.	4ee\	.	[<1.e	.	1.g]	.	1.r	1.r
.	.	.	2gg\	.	.	.	.	.	.	.
2c#\	2e/	.	.	.	.	.	.	.	.	.
.	.	.	2ee\	.	.	.	.	.	.	.
2C#/	2g/	.	.	.	.	.	.	.	.	.
.	.	.	[4cc#\	.	.	.	.	.	.	.
=48	=48	=48	=48	=48	=48	=48	=48	=48	=48	=48
2A\	2f#/	.	4cc#\]	.	1.e]	.	[1.f#	.	1.r	1.r
.	.	.	2ee\	.	.	.	.	.	.	.
2AA/	2a/	.	.	.	.	.	.	.	.	.
.	.	.	4cc#\	.	.	.	.	.	.	.
2A\	2f#/	.	4a/	.	.	.	.	.	.	.
.	.	.	4ee\	.	.	.	.	.	.	.
=49	=49	=49	=49	=49	=49	=49	=49	=49	=49	=49
2BB/	2b\	.	4dd\	.	1.d	.	1.f#]	.	1.r	1.r
*	*	*	*custos:dd	*	*	*	*	*	*	*
.	.	.	2ff#\	.	.	.	.	.	.	.
2B\	2d/	.	.	.	.	.	.	.	.	.
!	!	!	!LO:LB:g=original	!	!	!	!	!	!	!
.	.	.	2dd\	.	.	.	.	.	.	.
2BB/	2f#/	.	.	.	.	.	.	.	.	.
.	.	.	4b/	.	.	.	.	.	.	.
=50	=50	=50	=50	=50	=50	=50	=50	=50	=50	=50
1.G	2ee\	.	2gg\	.	1e	.	1g	.	1.r	1.r
.	2ee\	.	2gg\	.	.	.	.	.	.	.
*	*custos:dd	*	*	*	*	*	*	*	*	*
.	2dd\	.	2ff#\	.	2d\	.	2f#\	.	.	.
!	!LO:LB:g=original	!	!	!	!	!	!	!	!	!
=51	=51	=51	=51	=51	=51	=51	=51	=51	=51	=51
1A	2.dd\	.	2.ff#\	.	2.d\	.	2.f#\	-mi-	1.r	1.r
.	4cc#\	.	4ee\	.	4c#\	-se-	4e\	-se-	.	.
2A\	2cc#\	.	2ee\	.	2c#\	-ris	2e\	-ris,	.	.
=52	=52	=52	=52	=52	=52	=52	=52	=52	=52	=52
!	!	!LO:DY:a:t=forte	!	!LO:DY:a:t=forte	!	!	!	!	!	!
2D/	[1.f# 1.d	f	[1.f# 1.d	f	2A/	ge-	2a\	ge-	1.r	1.r
2r	.	.	.	.	4F#/	-nu	4f#\	-nu	.	.
.	.	.	.	.	4D/	cum	4d/	cum	.	.
2r	.	.	.	.	4B/	bo-	4b\	bo-	.	.
.	.	.	.	.	4G/	-ve	4g\	-ve	.	.
=53	=53	=53	=53	=53	=53	=53	=53	=53	=53	=53
2D/	1.f#_ 1.d	.	1.f#_ 1.d	.	(4A/	fle-	(4a\	fle-	1.r	1.r
.	.	.	.	.	4F#/)	.	4f#\)	.	.	.
2r	.	.	.	.	4G/	.	4g\	.	.	.
.	.	.	.	.	4E/	-cti-	4e\	-cti-	.	.
2r	.	.	.	.	(4F#/	-mus	(4f#\	-mus	.	.
.	.	.	.	.	4D/)	.	4d\)	.	.	.
!	!	!	!	!	!LO:LB:g=original	!	!	!	!	!
=54	=54	=54	=54	=54	=54	=54	=54	=54	=54	=54
2D/	1.f#_ 1.d	.	1.f#_ 1.d	.	2A/	fae-	2a\	fae-	1.r	1.r
2r	.	.	.	.	4F#/	-no	4f#\	-nó	.	.
.	.	.	.	.	4D/	que	4d/	que	.	.
!	!	!	!	!	!	!	!LO:LB:g=original	!	!	!
2r	.	.	.	.	4B/	lau-	4b\	lau-	.	.
.	.	.	.	.	4G/	-ros	4g\	-ros	.	.
=55	=55	=55	=55	=55	=55	=55	=55	=55	=55	=55
2D/	1.f#] 1.d	.	1.f#] 1.d	.	(4A/	ne-	(4a\	ne-	1.r	1.r
.	.	.	.	.	4F#/)	.	4f#\	.	.	.
2r	.	.	.	.	4G/	.	4g\)	.	.	.
.	.	.	.	.	4E/	-cti-	4e\	-cti-	.	.
2r	.	.	.	.	(4F#/	-mus	(4f#\	-mus	.	.
.	.	.	.	.	4D/)	.	4d\)	.	.	.
!LO:LB:g=original	!	!	!	!	!	!	!	!	!	!
=56	=56	=56	=56	=56	=56	=56	=56	=56	=56	=56
!LO:TX:a:t=6	!	!	!	!	!	!	!	!	!	!
1.r	2a/	.	2aa\	.	2D/	ge-	2d/	ge-	1.r	1.r
.	4f#/	.	4ff#\	.	2D/	-nu	2d/	-nu	.	.
.	4d/	.	4dd\	.	.	.	.	.	.	.
.	4b\	.	4bb\	.	2D/	cum	2d/	cum	.	.
.	4g/	.	4gg\	.	.	.	.	.	.	.
=57	=57	=57	=57	=57	=57	=57	=57	=57	=57	=57
1.r	4a/	.	4aa\	.	1D	bo-	1d	bo-	1.r	1.r
.	4f#/	.	4ff#\	.	.	.	.	.	.	.
.	4g/	.	4gg\	.	.	.	.	.	.	.
.	4e/	.	4ee\	.	.	.	.	.	.	.
.	4f#/	.	4ff#\	.	2D/	-ve	2d/	-ve	.	.
.	4d/	.	4dd\	.	.	.	.	.	.	.
=58	=58	=58	=58	=58	=58	=58	=58	=58	=58	=58
1.r	2a/	.	2aa\	.	2.D/	fle-	2.d/	flec-	1.r	1.r
.	4f#/	.	4ff#\	.	.	.	.	.	.	.
.	4d/	.	4dd\	.	4D/	-cti-	4d/	-ti-	.	.
.	4b\	.	4bb\	.	2D/	-mus	2d/	-mus	.	.
.	4g/	.	4gg\	.	.	.	.	.	.	.
=59	=59	=59	=59	=59	=59	=59	=59	=59	=59	=59
1.r	4a/	.	4aa\	.	2D/	fae-	2d/	fae-	1.r	1.r
.	4f#/	.	4ff#\	.	.	.	.	.	.	.
.	4g/	.	4gg\	.	2D/	-no	2d/	-nó	.	.
.	4e/	.	4ee\	.	.	.	.	.	.	.
.	4f#/	.	4ff#\	.	2D/	que	2d/	que	.	.
.	4d/	.	4dd\	.	.	.	.	.	.	.
=60	=60	=60	=60	=60	=60	=60	=60	=60	=60	=60
1.r	4dd\	.	4ff#\	.	2D/	lau-	2d/	lau-	4dd\	4ff#\
.	4ee\	.	4gg\	.	.	.	.	.	4ee\	4gg\
.	4ff#\	.	4aa\	.	1D	-ros	1d	-ros	4ff#\	4aa\
.	4dd\	.	4ff#\	.	.	.	.	.	4dd\	4ff#\
.	4ff#\	.	4aa\	.	.	.	.	.	4ff#\	4aa\
.	4gg\	.	4bb\	.	.	.	.	.	4gg\	4bb\
=61	=61	=61	=61	=61	=61	=61	=61	=61	=61	=61
1.r	4ff#\	.	4aa\	.	2.D/	nec-	2.d/	nec-	4ff#\	4aa\
.	4ee\	.	4gg\	.	.	.	.	.	4ee\	4gg\
.	2dd\	.	2ff#\	.	.	.	.	.	2dd\	2ff#\
.	.	.	.	.	4D/	-ti-	4d/	-ti-	.	.
.	2dd\	.	2ff#\	.	2D/	-mus	2d/	-mus	2dd\	2ff#\
=62	=62	=62	=62	=62	=62	=62	=62	=62	=62	=62
!	!LO:TX:a:t=6	!	!LO:TX:a:t=6	!	!	!	!	!	!	!
2B\	1.r	.	1.r	.	2d\	Pa-	2f#\	Pa-	1.r	1.r
*	*	*	*	*	*custos:e	*	*	*	*	*
2r	.	.	.	.	2d\	-ter	2f#\	-ter	.	.
!	!	!	!	!	!LO:LB:g=original	!	!	!	!	!
2r	.	.	.	.	2e\	fu-	2g\	fu-	.	.
=63	=63	=63	=63	=63	=63	=63	=63	=63	=63	=63
2B\	1.r	.	1.r	.	2.d\	-tu-	2.f#\	-tu-	1.r	1.r
2r	.	.	.	.	.	.	.	.	.	.
.	.	.	.	.	4c#\	.	4e\	.	.	.
2r	.	.	.	.	2B/	-ri	2d\	-ri	.	.
=64	=64	=64	=64	=64	=64	=64	=64	=64	=64	=64
1F#	1.r	.	1.r	.	2.c#\	Sae-	2.e\	Sae-	1.r	1.r
.	.	.	.	.	4B/	-cu-	4d/	-cu-	.	.
2F#\	.	.	.	.	2A#X/	-li	2c#/	-li	.	.
!	!	!	!	!	!	!	!LO:LB:g=original	!	!	!
=65	=65	=65	=65	=65	=65	=65	=65	=65	=65	=65
1B	1.r	.	1.r	.	2d\	ad	2f#\	ad	1.r	1.r
.	.	.	.	.	2d\	te	2f#\	te	.	.
2A#X\	.	.	.	.	2e\	vo-	2g\	vo-	.	.
=66	=66	=66	=66	=66	=66	=66	=66	=66	=66	=66
2B\	1.r	.	1.r	.	2.d\	-cen-	2.f#\	-cen-	1.r	1.r
2r	.	.	.	.	.	.	.	.	.	.
.	.	.	.	.	4c#\	.	4e\	.	.	.
2r	.	.	.	.	2B/	-tur	2d\	-tur	.	.
=67	=67	=67	=67	=67	=67	=67	=67	=67	=67	=67
!	!	!	!LO:TX:t=P:problem=2 lub 3 takty skreślone	!	!	!	!	!	!	!
1F#	1.r	.	1.r	.	2.c#\	fae-	2.e\	fae-	1.r	1.r
.	.	.	.	.	4B/	-mu-	4d/	-mu-	.	.
2F#\	.	.	.	.	2A#X/	-li	2c#/	-li	.	.
=68	=68	=68	=68	=68	=68	=68	=68	=68	=68	=68
!	!	!	!	!LO:DY:b:t=piano	!	!	!	!	!	!
!	!	!LO:DY:b:t=piano	!	!	!	!	!	!	!	!
2F#\	4f#/	p	4a#X/	p	(4F#/	om-	(4A#X/	Om-	1.r	1.r
.	4g#X/	.	4b/	.	4G#X/)	.	4B/)	.	.	.
2r	2a/	.	2cc#\	.	2A#X/	-nes	2c#/	-nes	.	.
2r	2dd\	.	2ff#\	.	2d\	ad	2f#\	ad	.	.
!	!	!	!LO:LB:g=original	!	!	!	!	!	!	!
=69	=69	=69	=69	=69	=69	=69	=69	=69	=69	=69
2F#\	4dd\	.	4ff#\	.	4d\	Jo-	4f#\	Jo-	1.r	1.r
.	8cc#\L	.	8ee\L	.	(8c#\L	-seph	(8e\L	-seph	.	.
.	8b\J	.	8dd\J	.	8B\J)	.	8d\J)	.	.	.
2r	4.cc#\	.	4.ee\	.	4.c#\	i-	4.e\	i-	.	.
.	8a#X/	.	8cc#\	.	8A#X/	-bi-	8c#/	-bi-	.	.
2B\	2b/	.	2dd\	.	2B/	-mus	2d/	-mus	.	.
=70	=70	=70	=70	=70	=70	=70	=70	=70	=70	=70
2F#\	4f#/	.	4a#X/	.	(4F#/	pro	(4A#X/	pro	1.r	1.r
.	4g#X/	.	4b/	.	4G#X/)	.	4B/)	.	.	.
2r	2a/	.	2cc#\	.	2A#X/	pa-	2c#/	pa-	.	.
*	*	*	*	*	*custos:d	*	*	*	*	*
2r	2dd\	.	2ff#\	.	2d\	-ne	2f#\	-ne	.	.
!	!	!	!	!	!LO:LB:g=original	!	!	!	!	!
=71	=71	=71	=71	=71	=71	=71	=71	=71	=71	=71
2F#\	4dd\	.	4ff#\	.	4d\	vo-	4f#\	vo-	1.r	1.r
.	8cc#\L	.	8ee\L	.	(8c#\L	-cem	(8e\L	-cem	.	.
.	8b\J	.	8dd\J	.	8B\J)	.	8d\J)	.	.	.
2r	4.cc#\	.	4.ee\	.	4.c#\	da-	4.e\	da-	.	.
.	8a#X/	.	8cc#\	.	8A#X/	-bi-	8c#/	-bi-	.	.
2BB/	2b/	.	2dd\	.	2B/	-mus	2d/	-mus	.	.
!	!LO:LB:g=original	!	!	!	!	!	!	!	!	!
=72	=72	=72	=72	=72	=72	=72	=72	=72	=72	=72
!	!	!	!	!	!LO:TX:a:t=1	!	!	!	!	!
2B\	2dd\	.	4dd\	.	1.r	.	2g\	pro	1.r	1.r
.	.	.	2gg\	.	.	.	.	.	.	.
2BB/	2dd\	.	.	.	.	.	2g\	pa-	.	.
.	.	.	2bb\	.	.	.	.	.	.	.
2B\	2dd\	.	.	.	.	.	2g\	-ne	.	.
.	.	.	4dd\	.	.	.	.	.	.	.
=73	=73	=73	=73	=73	=73	=73	=73	=73	=73	=73
2c#\	4ee\	.	4ee\	.	2e\	pro	1g	vo-	1.r	1.r
.	2gg\	.	2gg\	.	.	.	.	.	.	.
2C#/	.	.	.	.	2e\	pa-	.	.	.	.
.	2ee\	.	2ee\	.	.	.	.	.	.	.
2c#\	.	.	.	.	2e\	-ne	2g\	-cem	.	.
.	[4cc#\	.	[4cc#\	.	.	.	.	.	.	.
!	!	!	!	!	!	!	!LO:LB:g=original	!	!	!
=74	=74	=74	=74	=74	=74	=74	=74	=74	=74	=74
2A\	4cc#\]	.	4cc#\]	.	1.e	vo-	[1.f#	da-	1.r	1.r
.	2ee\	.	2ee\	.	.	.	.	.	.	.
2AA/	.	.	.	.	.	.	.	.	.	.
.	4cc#\	.	4cc#\	.	.	.	.	.	.	.
2A\	4a/	.	4a/	.	.	.	.	.	.	.
.	4ff#\	.	4ff#\	.	.	.	.	.	.	.
=75	=75	=75	=75	=75	=75	=75	=75	=75	=75	=75
2B\	4dd\	.	4dd\	.	1.d	-cem	1.f#]	.	1.r	1.r
.	2ff#\	.	2ff#\	.	.	.	.	.	.	.
2BB/	.	.	.	.	.	.	.	.	.	.
.	2dd\	.	2dd\	.	.	.	.	.	.	.
2B\	.	.	.	.	.	.	.	.	.	.
.	4b/	.	4b\	.	.	.	.	.	.	.
=76	=76	=76	=76	=76	=76	=76	=76	=76	=76	=76
1G	2gg\	.	2gg\	.	2e\	da-	2g\	.	1.r	1.r
.	2r	.	2r	.	4c#\	.	4e\	.	.	.
.	.	.	.	.	4d\	.	4f#\	.	.	.
2G\	2r	.	2r	.	2e\	.	2g\	.	.	.
=77	=77	=77	=77	=77	=77	=77	=77	=77	=77	=77
!	!LO:TX:a:t=1	!	!LO:TX:a:t=1	!	!	!	!	!	!	!
2A\	1.r	.	1.r	.	2d\	.	2f#\	.	1.r	1.r
2r	.	.	.	.	4c#\	.	4e\	.	.	.
.	.	.	.	.	4B/	-bi-	4d/	-bi-	.	.
2AA/	.	.	.	.	2c#\	-mus	2e\	-mus	.	.
=78	=78	=78	=78	=78	=78	=78	=78	=78	=78	=78
!	!	!LO:DY:a:t=forte	!	!	!	!	!	!	!	!
!	!	!	!	!LO:DY:a:t=forte	!	!	!	!	!	!
2A\	[1.a 1.A	f	[1.a 1.A	f	(4A/	om-	(4c#/	Om-	1.r	1.r
.	.	.	.	.	4B/)	.	4d/)	.	.	.
2A\	.	.	.	.	2c#\	-nes	2e,\	-nes	.	.
2A\	.	.	.	.	2f#\	ad	2a\	ad	.	.
!LO:LB:g=original	!	!	!	!	!	!	!	!	!	!
=79	=79	=79	=79	=79	=79	=79	=79	=79	=79	=79
2A\	1.a_ 1.A	.	1.a_ 1.A	.	4f#\	Jo-	4a\	Jo-	1.r	1.r
.	.	.	.	.	(8e\L	-seph	(8g\L	-seph	.	.
.	.	.	.	.	8d\J)	.	8f#,\J)	.	.	.
2r	.	.	.	.	4.e\	i-	4.g\	i-	.	.
.	.	.	.	.	8c#\	-bi-	8e\	-bi-	.	.
2D/	.	.	.	.	2d\	-mus	2f#\	-mus	.	.
=80	=80	=80	=80	=80	=80	=80	=80	=80	=80	=80
2A\	1.a_ 1.A	.	1.a_ 1.A	.	(4A/	pro	(4c#/	pro	1.r	1.r
.	.	.	.	.	4B/)	.	4d/)	.	.	.
2A\	.	.	.	.	2c#\	pa-	2e\	pa-	.	.
!	!	!	!	!	!LO:LB:g=original	!	!	!	!	!
2A\	.	.	.	.	2f#\	-ne	2a\	-ne	.	.
=81	=81	=81	=81	=81	=81	=81	=81	=81	=81	=81
2A\	1a] 1A	.	1a] 1A	.	4f#\	vo-	4a\	vo-	1.r	1.r
.	.	.	.	.	(8e\L	-cem	(8g\L	-cem	.	.
.	.	.	.	.	8d\J)	.	8f#\J)	.	.	.
2r	.	.	.	.	4.e\	da-	4.g\	da-	.	.
.	.	.	.	.	8c#\	-bi-	8e\	-bi-	.	.
2D/	2d/	.	2d/	.	2d\	-mus	2f#\	-mus	.	.
=82	=82	=82	=82	=82	=82	=82	=82	=82	=82	=82
!	!	!	!	!	!LO:TX:a:t=4	!	!LO:TX:a:t=4	!	!	!
2A\	4a/	.	4cc#\	.	1.r	.	1.r	.	2r	2r
.	4b/	.	4dd\	.	.	.	.	.	.	.
2A\	2cc#\	.	2ee\	.	.	.	.	.	2a/	2ee\
2A\	2ff#\	.	2aa\	.	.	.	.	.	2ff#\	2aa\
=83	=83	=83	=83	=83	=83	=83	=83	=83	=83	=83
2A\	4ff#\	.	4aa\	.	1.r	.	1.r	.	4ff#\	4aa\
.	8ee\L	.	8gg\L	.	.	.	.	.	8ee\L	8gg\L
.	8dd\J	.	8ff#\J	.	.	.	.	.	8dd\J	8ff#\J
!	!	!	!	!	!	!	!	!	!	!LO:LB:g=original
2A\	4ee\	.	4.gg\	.	.	.	.	.	4ee\	4gg\
.	4cc#\	.	.	.	.	.	.	.	4a/	4ee\
.	.	.	8ee\	.	.	.	.	.	.	.
2A\	2dd\	.	2ff#\	.	.	.	.	.	2dd\	2ff#\
!	!	!	!	!	!	!	!	!	!LO:LB:g=original	!
=84	=84	=84	=84	=84	=84	=84	=84	=84	=84	=84
2AA/	4a/	.	4cc#\	.	1.r	.	1.r	.	2r	2r
.	4b/	.	4dd\	.	.	.	.	.	.	.
2AA/	2cc#\	.	2ee\	.	.	.	.	.	2a/	2ee\
2AA/	2ff#\	.	2aa\	.	.	.	.	.	2ff#\	2aa\
!	!	!	!LO:LB:g=original	!	!	!	!	!	!	!
=85	=85	=85	=85	=85	=85	=85	=85	=85	=85	=85
2AA/	4ff#\	.	4aa\	.	1.r	.	1.r	.	4ff#\	4aa\
.	8ee\L	.	8gg\L	.	.	.	.	.	8ee\L	8gg\L
.	8dd\J	.	8ff#\J	.	.	.	.	.	8dd\J	8ff#\J
2AA/	4ee\	.	4gg\	.	.	.	.	.	4ee\	4gg\
.	4cc#\	.	4ee\	.	.	.	.	.	4a/	4ee\
2D\	2dd\	.	2ff#\	.	.	.	.	.	2dd\	2ff#\
=86	=86	=86	=86	=86	=86	=86	=86	=86	=86	=86
!	!LO:TX:a:t=1	!	!LO:TX:a:t=1	!	!	!	!	!	!LO:TX:a:t=1	!LO:TX:a:t=1
2D\	1.r	.	1.r	.	2.f#\	da-	2.a\	da-	1.r	1.r
2r	.	.	.	.	.	.	.	.	.	.
.	.	.	.	.	4e\	-bi-	4g\	-bi-	.	.
2r	.	.	.	.	2d\	-mus	2f#\	-mus.	.	.
=87	=87	=87	=87	=87	=87	=87	=87	=87	=87	=87
!	!	!	!	!	!LO:TX:a:t=2	!	!LO:TX:a:t=2	!	!	!
4D\	4d/	.	4dd\	.	1.r	.	1.r	.	4d/	4dd\
4E\	4e/	.	4ee\	.	.	.	.	.	4r	4ee\
2F#\	2f#/	.	2ff#\	.	.	.	.	.	2f#/	2ff#\
2G\	2g/	.	2gg\	.	.	.	.	.	2r	2gg\
=88	=88	=88	=88	=88	=88	=88	=88	=88	=88	=88
1A	1a	.	1aa	.	1.r	.	1.r	.	1a	1aa
2D/	2d/	.	2dd\	.	.	.	.	.	2d/	2dd\
==	==	==	==	==	==	==	==	==	==	==
*-	*-	*-	*-	*-	*-	*-	*-	*-	*-	*-
!!!system-decoration: [(g1)][(g2)][(g3)]
!!!RDF**kern: > = above
!!!RDF**kern: < = below
!!!ENC: Mateusz Solarz
!!!END: 2020-07-30
!!!ENC: Kamil Watkowski
!!!END: 2022-03-09
!!!YEC: Copyright 2022 Narodowy Instytut Fryderyka Chopina (https://polishscores.org)
!!!YEM: Licence CC BY 4.0 (https://creativecommons.org/licenses/by/4.0)
